X: 3181
T: Mr Hamilton of Wishaw's    Reel
C: by WIll: Gow.
%R: reel
B: Niel Gow & Sons "A Third Collection of Strathspey Reels, etc." v.3 p.18 #1
Z: 2022 John Chambers <jc:trillian.mit.edu>
M: C|
L: 1/8
K: Bb
% - - - - - - - - - -
% Voice 1 reformatted for 2 6-bar lines.
V: 1 staves=2
f |\
dB B/B/B TB2FB | cded cCCf | dB B/B/B TB2FB | ABcA BB,B, :| d | B/B/B fd bdfd | B/B/B fd eccd |
B/B/B fd bdfd | ABcA GB,B,d || B/B/B fd bdfd | B/B/B fd eccf | gefd ecdc | BGTFE DB,B, |]
% - - - - - - - - - -
% Voice 2 preserves the staff layout in the book.
V: 2 clef=bass middle=d
z | b2b2 b2b2 | e2e2 f2f2 | b2b2 b2b2 | f2F2 B2B :| z | b2b2 b2b2 | b2b2
f2f2 | b2b2 b2b2 | f2f2 B2B2 || b2b2 b2b2 | b2b2 f2f2 | e2d2 c2B2 | f2F2 B2B |]
